icons/op-columns-24.svg

<svg width="24" height="24" viewBox="0 0 24 24" fill="none" xmlns="http://www.w3.org/2000/svg">
<path d="M13.0576 4H19V19.9688H13.0576V4ZM18.3285 4.62378H13.729V19.3762H18.3621V4.62378H18.3285ZM5 4.03119H10.9424V20H5V4.03119ZM10.271 4.65497H5.63789V19.3762H10.271V4.65497Z" fill="black"/>
</svg>

<svg xmlns="http://www.w3.org/2000/svg" width="24" height="24" viewBox="0 0 24 24"><path d="M13.058 4H19v15.969h-5.942V4Zm5.27.624h-4.599v14.752h4.633V4.624h-.034ZM5 4.031h5.942V20H5V4.031Zm5.271.624H5.638v14.721h4.633V4.655Z"/></svg>
